assets/icons/uE02D-trash.svg

<svg xmlns="http://www.w3.org/2000/svg" width="896" height="1232" viewBox="0 0 896 1232"><path d="M864 212q32 14 32 50v74q0 23-16.5 39.5T840 392h-29l-27 507q-2 23-18 38t-38 15H168q-22 0-38-15t-18-38L85 392H56q-23 0-39.5-16.5T0 336v-74q0-35 31-50l79-38q11-6 24-6h69q16-49 58.5-80.5T357 56h182q53 0 95.5 31.5T692 168h69q12 0 24 6zM728 896l28-532H140l28 532h560zm112-560v-74l-79-38H644v-7q0-43-31-74t-74-31H357q-43 0-74 31t-31 74v7H134l-78 38v74h784zM588 217q0-19-15-34t-34-15H357q-19 0-34 15t-15 34v7h280v-7zm28 231q0-11-8.5-19.5T588 420q-12 0-20 8.5t-8 19.5v364q0 12 8 20t20 8q11 0 19.5-8t8.5-20V448zm-140 0q0-11-8.5-19.5T448 420q-12 0-20 8.5t-8 19.5v364q0 12 8 20t20 8q11 0 19.5-8t8.5-20V448zm-140 0q0-11-8.5-19.5T308 420q-12 0-20 8.5t-8 19.5v364q0 12 8 20t20 8q11 0 19.5-8t8.5-20V448z"/></svg>

<?xml version="1.0" encoding="UTF-8" standalone="no"?><svg   xmlns:svg="http://www.w3.org/2000/svg"   xmlns="http://www.w3.org/2000/svg"   version="1.1"   width="896"   height="1232"   viewBox="0 0 896 1232">  <path     d="M864 212Q896 226 896 262V336Q896 359 879.5 375.5T840 392H811L784 899Q782 922 766 937T728 952H168Q146 952 130 937T112 899L85 392H56Q33 392 16.5 375.5T0 336V262Q0 227 31 212L110 174Q121 168 134 168H203Q219 119 261.5 87.5T357 56H539Q592 56 634.5 87.5T692 168H761Q773 168 785 174zM728 896L756 364H140L168 896H728zM840 336V262L761 224H644V217Q644 174 613 143T539 112H357Q314 112 283 143T252 217V224H134L56 262V336H840zM588 217Q588 198 573 183T539 168H357Q338 168 323 183T308 217V224H588V217zM616 448Q616 437 607.5 428.5T588 420Q576 420 568 428.5T560 448V812Q560 824 568 832T588 840Q599 840 607.5 832T616 812V448zM476 448Q476 437 467.5 428.5T448 420Q436 420 428 428.5T420 448V812Q420 824 428 832T448 840Q459 840 467.5 832T476 812V448zM336 448Q336 437 327.5 428.5T308 420Q296 420 288 428.5T280 448V812Q280 824 288 832T308 840Q319 840 327.5 832T336 812V448z"     id="icon81" /></svg>
